packages/core/src/svgs/wallets/mono/ronin.svg

<svg width="24" height="24" viewBox="0 0 24 24" fill="none" xmlns="http://www.w3.org/2000/svg">
<path d="M10.9752 9.80108H12.4749C12.74 9.80108 12.9942 9.6947 13.1817 9.5057C13.3692 9.31652 13.4745 9.06002 13.4745 8.79255V6.60753C13.4745 6.56297 13.457 6.5202 13.4257 6.48869C13.3945 6.45717 13.3521 6.43945 13.3079 6.43945H10.9752C10.9311 6.43945 10.8887 6.45717 10.8575 6.48869C10.8262 6.5202 10.8086 6.56297 10.8086 6.60753V9.63295C10.8086 9.67758 10.8262 9.72033 10.8575 9.75183C10.8887 9.78333 10.9311 9.80108 10.9752 9.80108Z" fill="white"/>
<path fill-rule="evenodd" clip-rule="evenodd" d="M5 15.8774V3.53853C5 3.13048 5.16271 2.73915 5.45235 2.45062C5.74198 2.16209 6.1348 2 6.5444 2H17.7413C18.1509 2 18.5438 2.16209 18.8334 2.45062C19.123 2.73915 19.2858 3.13048 19.2858 3.53853V15.8774C19.2856 16.1079 19.2335 16.3354 19.1331 16.5431C19.033 16.7507 18.8871 16.9335 18.7065 17.0775L12.8669 21.7469C12.6614 21.9108 12.406 22 12.1429 22C11.8796 22 11.6244 21.9108 11.4189 21.7469L5.57915 17.0775C5.39855 16.9335 5.25275 16.7507 5.1525 16.5431C5.05226 16.3354 5.00015 16.1079 5 15.8774ZM16.3071 6.43987V9.12914C16.3071 9.48531 16.167 9.82687 15.9176 10.0791C15.6681 10.3311 15.3298 10.4731 14.9768 10.4738C15.3303 10.4738 15.6693 10.6155 15.9193 10.8676C16.1693 11.1198 16.3096 11.4618 16.3096 11.8184V14.2429C16.3095 14.4444 16.2645 14.6431 16.178 14.8247C16.0915 15.0062 15.9656 15.1659 15.8098 15.2917L13.7471 16.9625C13.7226 16.9823 13.693 16.9946 13.6619 16.9983C13.6306 17.0019 13.5991 16.9965 13.5709 16.9828C13.5425 16.9691 13.5186 16.9476 13.502 16.9209C13.4853 16.894 13.4764 16.863 13.4763 16.8314V12.1545C13.4763 11.8871 13.371 11.6306 13.1835 11.4415C12.996 11.2524 12.7418 11.1461 12.4766 11.1461H10.9771C10.9329 11.1461 10.8905 11.1639 10.8593 11.1953C10.828 11.2268 10.8105 11.2696 10.8105 11.3141V16.8314C10.8105 16.8631 10.8018 16.8944 10.785 16.9213C10.7683 16.9483 10.7443 16.9698 10.7158 16.9835C10.6874 16.9973 10.6556 17.0026 10.6243 16.9989C10.593 16.9951 10.5634 16.9825 10.5389 16.9625L8.47615 15.2917C8.32029 15.1659 8.19444 15.0062 8.10793 14.8247C8.02141 14.6431 7.97643 14.4444 7.9763 14.2429V6.43987C7.9763 6.08326 8.11674 5.74125 8.3667 5.48909C8.61668 5.23691 8.95573 5.09525 9.30924 5.09525H14.9743C15.3278 5.09525 15.6668 5.23691 15.9168 5.48909C16.1668 5.74125 16.3071 6.08326 16.3071 6.43987Z" fill="white"/>
</svg>

<svg xmlns="http://www.w3.org/2000/svg" width="24" height="24" fill="none" viewBox="0 0 24 24">
    <path fill="#fff" d="M10.975 9.801h1.5c.265 0 .52-.106.707-.295.187-.19.293-.446.293-.713V6.608a.17.17 0 0 0-.167-.169h-2.333a.17.17 0 0 0-.167.168v3.026a.17.17 0 0 0 .167.168"/>
    <path fill="#fff" fill-rule="evenodd" d="M5 15.877V3.54c0-.409.163-.8.452-1.088S6.135 2 6.544 2h11.197a1.54 1.54 0 0 1 1.545 1.539v12.338a1.53 1.53 0 0 1-.58 1.2l-5.84 4.67a1.16 1.16 0 0 1-1.447 0l-5.84-4.67a1.54 1.54 0 0 1-.579-1.2M16.307 6.44v2.69c0 .355-.14.697-.39.95a1.33 1.33 0 0 1-.94.394c.353 0 .692.142.942.394s.39.594.39.95v2.425a1.35 1.35 0 0 1-.5 1.049l-2.062 1.67a.17.17 0 0 1-.176.02.17.17 0 0 1-.095-.15v-4.677a1 1 0 0 0-.293-.713 1 1 0 0 0-.706-.296h-1.5a.166.166 0 0 0-.167.168v5.517a.17.17 0 0 1-.094.152.17.17 0 0 1-.177-.02l-2.063-1.671a1.34 1.34 0 0 1-.5-1.05V6.44c0-.357.14-.699.39-.95.25-.253.59-.395.943-.395h5.665c.354 0 .693.142.943.394s.39.594.39.95" clip-rule="evenodd"/>
</svg>
